X:1
T:Title
%%score { ( 1 3 6 ) | ( 2 4 5 ) }
L:1/8
M:3/4
K:Ab
V:1 treble nm="Grand Piano"
V:3 treble 
V:6 treble 
V:2 bass 
V:4 bass 
V:5 bass 
V:1
 z2 z2[Q:1/4=94] E=D | [DF]2 z E FG | [DB]2 [A,CA]2 [CA][B,G] | z2 z E B_c |[M:2/4] [Ec]4 | %5
[M:1/4] cB |[M:3/4] [Fd]2 c2 BG | z2 z2 .[EG]2 | [CE]A c2 B2 |[M:9/16] [CA]4- [CA]/ | %10
[M:4/4] z4 z [GB]3- | [GB] z z[K:bass] c- c4- | c[K:treble] z z2 z4 | %13
[M:17/16] z/ z/ z/ z/ z e/-e/-e/-e/-e/-e/-e/-e-<e |[M:4/4] [Ge][Ae]dc- c [CA]3- | %15
 [CA][DB]- [DB]/[Ec]/[Fe]- [Fe] [Fd]3- | [Fd] z [Fd]A Bcdc- |[M:3/4] c B2 [CA]3- | [CA]4 z2 |] %19
V:2
 z2 z2 C_C | z2 z C DD | z2 E,2 [E,A,]2 | z2 z D DD |[M:2/4] z2 E,2 |[M:1/4] ED | %6
[M:3/4] z2 [E,A,E]2 =EE | z2 F,2 z D | z [E,A,C] [E,A,E]2 [E,G,D]2 | %9
[M:9/16] [A,,E,A,]4- [A,,E,A,]/ |[M:4/4] [A,E][A,=D]- [A,D]/[A,E]/[E,B,]- [E,B,] [E,E]2 E, | %11
 E,[K:treble][F,DF]- [F,DF]/[G,B,E]/[A,E]- [A,E]4- | %12
 [A,E][A,E]- [A,E]/[A,CE]/[B,EA] [B,EG][B,EG][B,G][B,A]- | %13
[M:17/16] [B,A][B,EA]3/2.[B,FA]3/2[K:bass] z C-<CD3/2 | %14
[M:4/4] [E,B,][F,B,][G,B,E][A,E]- [A,E] [A,,A,]3- | %15
 [A,,A,][A,,A,]- [A,,A,]/[A,,A,]/[D,A,]- [D,A,] [D,A,]3- | %16
 [D,A,] z [D,A,][F,A,=D] [F,A,D][E,A,E][E,A,F][E,A,E]- |[M:3/4] [E,A,E] [E,G,D]2 [A,,A,]3- | %18
 [A,,A,]4 z2 |] %19
V:3
 x6 | z2 A,2 z2 | x6 | [DB]4 z2 |[M:2/4] z2 A,2 |[M:1/4] x2 |[M:3/4] x6 | [GB]2 [CFA]2 F,-[F,F] | %8
 x6 |[M:9/16] x9/2 |[M:4/4] c_c- c/=c/[Ge]- [Ge] z z E | EA- A<.B[K:bass] z E,C,A,,- | %12
 A,,[K:treble]c- c/c/c BBe=d- |[M:17/16] dc>=d[EG]-<[EG]A-<AB3/2 |[M:4/4] x8 | x8 | x8 | %17
[M:3/4] x6 | x6 |] %19
V:4
 x6 | z2 E,2 [E,A,]2 | A,,6 | z2 E,2 [E,G,]2 |[M:2/4] A,,4 |[M:1/4] [E,A,]2 | %6
[M:3/4] A,,4 [C,,G,C]2 | F,,4 D,,2 | E,,6 |[M:9/16] x9/2 |[M:4/4] x8 | x[K:treble] x7 | x8 | %13
[M:17/16] z/ z/ z/ z/ z[K:bass] E,/-E,/-E,/-E,/-E,/-E,/-E,/-E,-<E, |[M:4/4] x8 | x8 | x8 | %17
[M:3/4] x6 | x6 |] %19
V:5
 x6 | A,,6 | x6 | E,,6 |[M:2/4] x4 |[M:1/4] x2 |[M:3/4] x6 | x6 | x6 |[M:9/16] x9/2 |[M:4/4] x8 | %11
 x[K:treble] x7 | x8 |[M:17/16] x3[K:bass] x11/2 |[M:4/4] x8 | x8 | x8 |[M:3/4] x6 | x6 |] %19
V:6
 x6 | x6 | x6 | z2 G,2 z2 |[M:2/4] x4 |[M:1/4] x2 |[M:3/4] x6 | x6 | x6 |[M:9/16] x9/2 | %10
[M:4/4] x8 | x3[K:bass] x5 | x[K:treble] x7 |[M:17/16] x17/2 |[M:4/4] x8 | x8 | x8 |[M:3/4] x6 | %18
 x6 |] %19

